X:1
T:Ma Mere Chantait
M:3/4
L:1/4
C:Music by Francois Cousineau
S:Lyrics by Luc Plamondon
Z: Jim McKinney <goldgrif@wdl.net> QueTrad 2003-3-29
K:G
D |\
"G"B3 | F A>B, | D3- | D3 | D3 | "G"B3 | "Am"c3- | c3 |
c3 | B A G | "D"F3- | F3 | "D"F G A | E F>D | "G"B,3- | B,2 D |
B3 | F A>B, | "G"D3- | D2 ^D | "E"E2 =F | "E7"E2 B | "Am"c3- | c3 |
"Am"c A B | c2 B | "G"A G F | G2 A | B3 | D3 | "G"B A B | "D7"c2 F | "G"G3- | G3 ||
"Am"E3 | E F G | "D"F3- | F F E | "G"D3 | D E F | "E"E3- | "E7"E E D |
"Am"C3 | C D E | "D"D3- | D E D | "G"D3- | D B, G, | "G7"A3 | G3 |
"C"E3 | E F G | "D"F3- | F2 F | "Em"G3 | G A B | "A"A3- | A G A |
"G"B3 | D3 | B A B | "D7"c2 F | "G"G3 | "Bm"F3 | "C"E3 | "D"D2 |]
